chart-tree.svg

<svg fill="currentColor" viewBox="0 0 24 24"><path d="M14 6h8v16h-8zM2 4h20V2H2zm0 4h10V6H2zm7 14h3V10H9zm-7 0h5V10H2z"/></svg>

<svg  viewBox="0 0 24 24" fill="currentColor"><path  d="M14,6H22V22H14V6M2,4H22V2H2V4M2,8H12V6H2V8M9,22H12V10H9V22M2,22H7V10H2V22Z"/></svg>
